svg/blobs-icons/no-decorations/cuecumber.svg

<svg xmlns="http://www.w3.org/2000/svg" xmlns:xlink="http://www.w3.org/1999/xlink" preserveAspectRatio="xMidYMid" width="216" height="185" viewBox="0 0 216 185"><defs><style>.cls-3{fill:#0cb04a}.cls-4{fill:#000;opacity:.35}.cls-5{fill:#fbb713}.cls-6{fill:#ededed}.cls-11{fill:#087330}</style></defs><g id="group-67svg"><path d="M196.063 70.446s-76.773 42.07-76.773 42.07c-24.994 13.697-55.53-4.39-55.53-32.89.0-13.698 7.469-26.306 19.482-32.89l76.773-42.07c24.995-13.697 55.53 4.39 55.53 32.89C215.545 51.254 208.077 63.862 196.063 70.446z" id="path-1" class="cls-3" fill-rule="evenodd"/><path d="M192.555 2.995C199.273 9.631 203.594 18.872 203.594 29.59 203.594 43.287 196.125 55.896 184.112 62.48l-76.773 42.069C96.554 110.459 84.748 110.428 74.798 106.221c11.146 11.01 28.896 14.84 44.492 6.295l76.773-42.07c12.014-6.584 19.482-19.192 19.482-32.89.0-16.203-9.88-29.016-22.99-34.561z" id="path-2" class="cls-4" fill-rule="evenodd"/><path d="M134.541 81.156c0 19.546-15.844 35.391-35.39 35.391-19.546.0-35.391-15.845-35.391-35.391.0-19.544 15.845-35.388 35.391-35.388 19.546.0 35.39 15.844 35.39 35.388z" id="path-3" class="cls-5" fill-rule="evenodd"/><path d="M120.205 81.156C120.205 92.785 110.778 102.211 99.151 102.211c-11.628.0-21.054-9.426-21.054-21.055.0-11.627 9.426-21.052 21.054-21.052 11.627.0 21.054 9.425 21.054 21.052z" id="path-4" class="cls-6" fill-rule="evenodd"/><path d="M107.118 60.104C105.753 60.104 104.427 60.258 103.135 60.505 112.854 62.369 120.206 70.893 120.206 81.157c0 10.263-7.352 18.786-17.071 20.652C104.427 102.057 105.753 102.211 107.118 102.211c11.628.0 21.054-9.426 21.054-21.054s-9.426-21.053-21.054-21.053z" id="path-5" class="cls-4" fill-rule="evenodd"/><path d="M160.405 150.643c0 9.94800000000001-20.093 18.013-44.88 18.013-24.786.0-44.88-8.065-44.88-18.013C70.645 140.693 90.739 132.628 115.525 132.628c24.787.0 44.88 8.06500000000003 44.88 18.015z" id="path-6" class="cls-5" fill-rule="evenodd"/><path d="M149.068 150.643c0 7.435-15.018 13.464-33.543 13.464s-33.543-6.029-33.543-13.464C81.982 143.207 97 137.179 115.525 137.179S149.068 143.207 149.068 150.643z" id="path-7" class="cls-6" fill-rule="evenodd"/><path d="M115.525 131.723C89.494 131.723 68.391 140.194 68.391 150.643v17.111c.890000000000001 21.9 95.22 22.467 94.268.0V150.643c0-10.449-21.103-18.92-47.134-18.92zm0 36.933c-24.786.0-44.88-8.065-44.88-18.013C70.645 140.693 90.739 132.628 115.525 132.628c24.787.0 44.88 8.06500000000003 44.88 18.015.0 9.94800000000001-20.093 18.013-44.88 18.013z" id="path-8" class="cls-3" fill-rule="evenodd"/><path d="M115.525 131.723C89.494 131.723 68.391 140.194 68.391 150.643v17.111c.890000000000001 21.9 95.22 22.467 94.268.0V150.643c0-10.449-21.103-18.92-47.134-18.92zm0 36.933c-24.786.0-44.88-8.065-44.88-18.013C70.645 140.693 90.739 132.628 115.525 132.628c24.787.0 44.88 8.06500000000003 44.88 18.015.0 9.94800000000001-20.093 18.013-44.88 18.013z" id="path-9" class="cls-11" fill-rule="evenodd"/><path d="M58.959 91.147c0 6.374-12.874 11.543-28.755 11.543S1.449 97.521 1.449 91.147C1.449 84.773 14.323 79.605 30.204 79.605S58.959 84.773 58.959 91.147z" id="path-10" class="cls-5" fill-rule="evenodd"/><path d="M51.696 91.147c0 4.764-9.622 8.627-21.492 8.627-11.869.0-21.492-3.863-21.492-8.627C8.712 86.383 18.335 82.52 30.204 82.52 42.074 82.52 51.696 86.383 51.696 91.147z" id="path-11" class="cls-6" fill-rule="evenodd"/><path d="M30.204 79.025C13.526 79.025.005 84.452.005 91.147v10.964c.57 14.032 61.009 14.394 60.399.0V91.147C60.404 84.452 46.882 79.025 30.204 79.025zm0 23.665c-15.881.0-28.755-5.169-28.755-11.543C1.449 84.773 14.323 79.605 30.204 79.605S58.959 84.773 58.959 91.147c0 6.374-12.874 11.543-28.755 11.543z" id="path-12" class="cls-3" fill-rule="evenodd"/><path d="M30.204 79.025C13.526 79.025.005 84.452.005 91.147v10.964c.57 14.032 61.009 14.394 60.399.0V91.147C60.404 84.452 46.882 79.025 30.204 79.025zm0 23.665c-15.881.0-28.755-5.169-28.755-11.543C1.449 84.773 14.323 79.605 30.204 79.605S58.959 84.773 58.959 91.147c0 6.374-12.874 11.543-28.755 11.543z" id="path-13" class="cls-11" fill-rule="evenodd"/></g></svg>

<svg xmlns="http://www.w3.org/2000/svg" xmlns:xlink="http://www.w3.org/1999/xlink" preserveAspectRatio="xMidYMid" width="216" height="185" viewBox="0 0 216 185">
  <defs>
    <style>

      .cls-3 {
        fill: #0cb04a;
      }

      .cls-4 {
        fill: #000000;
        opacity: 0.35;
      }

      .cls-5 {
        fill: #fbb713;
      }

      .cls-6 {
        fill: #ededed;
      }

      .cls-11 {
        fill: #087330;
      }
    </style>
  </defs>
  <g id="group-67svg">
    <path d="M196.063,70.446 C196.063,70.446 119.290,112.516 119.290,112.516 C94.296,126.213 63.760,108.126 63.760,79.626 C63.760,79.626 63.760,79.626 63.760,79.626 C63.760,65.928 71.229,53.320 83.242,46.736 C83.242,46.736 160.015,4.666 160.015,4.666 C185.010,-9.031 215.545,9.056 215.545,37.556 C215.545,37.556 215.545,37.556 215.545,37.556 C215.545,51.254 208.077,63.862 196.063,70.446 Z" id="path-1" class="cls-3" fill-rule="evenodd"/>
    <path d="M192.555,2.995 C199.273,9.631 203.594,18.872 203.594,29.590 C203.594,29.590 203.594,29.590 203.594,29.590 C203.594,43.287 196.125,55.896 184.112,62.480 C184.112,62.480 107.339,104.549 107.339,104.549 C96.554,110.459 84.748,110.428 74.798,106.221 C85.944,117.231 103.694,121.061 119.290,112.516 C119.290,112.516 196.063,70.446 196.063,70.446 C208.077,63.862 215.545,51.254 215.545,37.556 C215.545,37.556 215.545,37.556 215.545,37.556 C215.545,21.353 205.665,8.540 192.555,2.995 Z" id="path-2" class="cls-4" fill-rule="evenodd"/>
    <path d="M134.541,81.156 C134.541,100.702 118.697,116.547 99.151,116.547 C79.605,116.547 63.760,100.702 63.760,81.156 C63.760,61.612 79.605,45.768 99.151,45.768 C118.697,45.768 134.541,61.612 134.541,81.156 Z" id="path-3" class="cls-5" fill-rule="evenodd"/>
    <path d="M120.205,81.156 C120.205,92.785 110.778,102.211 99.151,102.211 C87.523,102.211 78.097,92.785 78.097,81.156 C78.097,69.529 87.523,60.104 99.151,60.104 C110.778,60.104 120.205,69.529 120.205,81.156 Z" id="path-4" class="cls-6" fill-rule="evenodd"/>
    <path d="M107.118,60.104 C105.753,60.104 104.427,60.258 103.135,60.505 C112.854,62.369 120.206,70.893 120.206,81.157 C120.206,91.420 112.854,99.943 103.135,101.809 C104.427,102.057 105.753,102.211 107.118,102.211 C118.746,102.211 128.172,92.785 128.172,81.157 C128.172,69.529 118.746,60.104 107.118,60.104 Z" id="path-5" class="cls-4" fill-rule="evenodd"/>
    <path d="M160.405,150.643 C160.405,160.591 140.312,168.656 115.525,168.656 C90.739,168.656 70.645,160.591 70.645,150.643 C70.645,140.693 90.739,132.628 115.525,132.628 C140.312,132.628 160.405,140.693 160.405,150.643 Z" id="path-6" class="cls-5" fill-rule="evenodd"/>
    <path d="M149.068,150.643 C149.068,158.078 134.050,164.107 115.525,164.107 C97.000,164.107 81.982,158.078 81.982,150.643 C81.982,143.207 97.000,137.179 115.525,137.179 C134.050,137.179 149.068,143.207 149.068,150.643 Z" id="path-7" class="cls-6" fill-rule="evenodd"/>
    <path d="M115.525,131.723 C89.494,131.723 68.391,140.194 68.391,150.643 C68.391,150.643 68.391,167.754 68.391,167.754 C69.281,189.654 163.611,190.221 162.659,167.754 C162.659,167.754 162.659,150.643 162.659,150.643 C162.659,140.194 141.556,131.723 115.525,131.723 ZM115.525,168.656 C90.739,168.656 70.645,160.591 70.645,150.643 C70.645,140.693 90.739,132.628 115.525,132.628 C140.312,132.628 160.405,140.693 160.405,150.643 C160.405,160.591 140.312,168.656 115.525,168.656 Z" id="path-8" class="cls-3" fill-rule="evenodd"/>
    <path d="M115.525,131.723 C89.494,131.723 68.391,140.194 68.391,150.643 C68.391,150.643 68.391,167.754 68.391,167.754 C69.281,189.654 163.611,190.221 162.659,167.754 C162.659,167.754 162.659,150.643 162.659,150.643 C162.659,140.194 141.556,131.723 115.525,131.723 ZM115.525,168.656 C90.739,168.656 70.645,160.591 70.645,150.643 C70.645,140.693 90.739,132.628 115.525,132.628 C140.312,132.628 160.405,140.693 160.405,150.643 C160.405,160.591 140.312,168.656 115.525,168.656 Z" id="path-9" class="cls-11" fill-rule="evenodd"/>
    <path d="M58.959,91.147 C58.959,97.521 46.085,102.690 30.204,102.690 C14.323,102.690 1.449,97.521 1.449,91.147 C1.449,84.773 14.323,79.605 30.204,79.605 C46.085,79.605 58.959,84.773 58.959,91.147 Z" id="path-10" class="cls-5" fill-rule="evenodd"/>
    <path d="M51.696,91.147 C51.696,95.911 42.074,99.774 30.204,99.774 C18.335,99.774 8.712,95.911 8.712,91.147 C8.712,86.383 18.335,82.520 30.204,82.520 C42.074,82.520 51.696,86.383 51.696,91.147 Z" id="path-11" class="cls-6" fill-rule="evenodd"/>
    <path d="M30.204,79.025 C13.526,79.025 0.005,84.452 0.005,91.147 C0.005,91.147 0.005,102.111 0.005,102.111 C0.575,116.143 61.014,116.505 60.404,102.111 C60.404,102.111 60.404,91.147 60.404,91.147 C60.404,84.452 46.882,79.025 30.204,79.025 ZM30.204,102.690 C14.323,102.690 1.449,97.521 1.449,91.147 C1.449,84.773 14.323,79.605 30.204,79.605 C46.085,79.605 58.959,84.773 58.959,91.147 C58.959,97.521 46.085,102.690 30.204,102.690 Z" id="path-12" class="cls-3" fill-rule="evenodd"/>
    <path d="M30.204,79.025 C13.526,79.025 0.005,84.452 0.005,91.147 C0.005,91.147 0.005,102.111 0.005,102.111 C0.575,116.143 61.014,116.505 60.404,102.111 C60.404,102.111 60.404,91.147 60.404,91.147 C60.404,84.452 46.882,79.025 30.204,79.025 ZM30.204,102.690 C14.323,102.690 1.449,97.521 1.449,91.147 C1.449,84.773 14.323,79.605 30.204,79.605 C46.085,79.605 58.959,84.773 58.959,91.147 C58.959,97.521 46.085,102.690 30.204,102.690 Z" id="path-13" class="cls-11" fill-rule="evenodd"/>
  </g>
</svg>
